X:1
T: La Ronde Des Milloraines
M: 6/8
L: 1/8
R: jig
K:Dmin
|:dcd|efg a2a|gfe f2e|dcd A2A|
dcd efg|a2a gfe|f2e d2c|d3:|
|:dcd|B2B BAG|A2D EFG|ABA GFG|A3 dcd|
B2B BAG|A2D EFG|ABA GFE|D3:|
